X: 2120
T: DON SIDE
C:
Q: "Strathspey."
R: Strathspey.
%R: strathspey
B: James Kerr "Merry Melodies" v.2 p.15 #120
Z: 2016 John Chambers <jc:trillian.mit.edu>
M: C
L: 1/16
K: G
uA2 |\
vGGG2 uB3uG vA3vG (EA3) | GGG2 B3G A3GB3G |\
c3AB3G A3GE3e | d3cB3A BG3 G2 ::\
uf2 |\
vg3vfug3uB A3GE3e | g3dg3B g3dg3a |
(bagf) g3B A3GE3e | d3cB3A BG3 G2 ::\
ua2 |\
vggg2 ub3ug va3vg (ea3) | ggg2 b3g a3gb3g |\
a3gb3g a3ge3g |
d3cB3A BG3 G2 ::\
(3(DEF) |\
G3DB,3D EA,3 A,2(EF) | G3DB,3D G,3DB,3D |\
C3EB,3D EA,3 A,3F | GFED G3D (B,G,3) G,2 :|
